static/img/uptick-icon.svg

<svg width="50" height="50" viewBox="0 0 50 50" fill="none" xmlns="http://www.w3.org/2000/svg">
<g clip-path="url(#clip0_975_5721)">
<path d="M24.853 49.8263C38.579 49.8263 49.706 38.6992 49.706 24.9733C49.706 11.2473 38.579 0.120239 24.853 0.120239C11.1271 0.120239 0 11.2473 0 24.9733C0 38.6992 11.1271 49.8263 24.853 49.8263Z" fill="white"/>
<path d="M26.4165 44.7221L18.1054 36.1171L15.1525 38.9765L11.2642 34.9413L27.8328 18.9204L40.0456 31.5473L26.4165 44.7221ZM22.1407 32.2288L26.5501 36.7985L32.0953 31.4271L27.6859 26.8573L22.1407 32.2288Z" fill="url(#paint0_linear_975_5721)"/>
<g opacity="0.2">
<path d="M34.0996 14.8585L23.3166 25.2941L18.8938 20.7243L28.2604 11.6783H20.1899L10.9702 20.6041L23.1696 33.2176L37.9879 18.8937L34.0996 14.8585Z" fill="#533E94"/>
<path d="M29.129 9.72751L25.7751 6.28015L22.2075 9.72751H29.129Z" fill="#533E94"/>
</g>
<path d="M33.0974 13.8563L22.301 24.2919L17.8916 19.7221L27.2582 10.6761H19.1877L9.96802 19.5885L22.1674 32.2154L36.9857 17.8915L33.0974 13.8563Z" fill="#7800F4"/>
<path d="M28.1268 8.72531L24.7729 5.27795L21.2053 8.72531H28.1268Z" fill="#7800F4"/>
</g>
<defs>
<linearGradient id="paint0_linear_975_5721" x1="25.6549" y1="21.0042" x2="25.6549" y2="44.1272" gradientUnits="userSpaceOnUse">
<stop stop-color="#040000"/>
<stop offset="1" stop-color="#322951"/>
</linearGradient>
<clipPath id="clip0_975_5721">
<rect width="50" height="50" fill="white"/>
</clipPath>
</defs>
</svg>

<svg xmlns="http://www.w3.org/2000/svg" width="50" height="50" fill="none"><g clip-path="url(#a)"><path fill="#fff" d="M24.853 49.826c13.726 0 24.853-11.127 24.853-24.853S38.579.12 24.853.12 0 11.247 0 24.973s11.127 24.853 24.853 24.853"/><path fill="url(#b)" d="m26.417 44.722-8.312-8.605-2.953 2.86-3.888-4.036 16.569-16.02 12.213 12.626zM22.14 32.23l4.41 4.57 5.544-5.372-4.41-4.57z"/><path fill="#533E94" d="M34.1 14.859 23.317 25.294l-4.423-4.57 9.366-9.046h-8.07l-9.22 8.926 12.2 12.614 14.818-14.324zm-4.971-5.131L25.775 6.28l-3.567 3.448z" opacity=".2"/><path fill="#7800F4" d="M33.097 13.856 22.301 24.292l-4.41-4.57 9.367-9.046h-8.07l-9.22 8.913 12.2 12.626 14.818-14.324zm-4.97-5.131-3.354-3.447-3.568 3.447z"/></g><defs><linearGradient id="b" x1="25.655" x2="25.655" y1="21.004" y2="44.127" gradientUnits="userSpaceOnUse"><stop stop-color="#040000"/><stop offset="1" stop-color="#322951"/></linearGradient><clipPath id="a"><path fill="#fff" d="M0 0h50v50H0z"/></clipPath></defs></svg>
